packages/clay/build/images/icons/product-menu-closed.svg

<?xml version="1.0" encoding="utf-8"?>
<!-- Generated by IcoMoon.io -->
<!DOCTYPE svg PUBLIC "-//W3C//DTD SVG 1.1//EN" "http://www.w3.org/Graphics/SVG/1.1/DTD/svg11.dtd">
<svg version="1.1" xmlns="http://www.w3.org/2000/svg" xmlns:xlink="http://www.w3.org/1999/xlink" width="512" height="512" viewBox="0 0 512 512"><g id="icomoon-ignore">
</g>
<path d="M31.029 0c-17.092 0-31.029 13.937-31.029 31.029v449.942c0 17.092 13.937 31.029 31.029 31.029s31.029-13.937 31.029-31.029v-449.942c0-17.092-13.901-31.029-31.029-31.029v0z"></path>
<path d="M463.983 511.966h-319.965c-26.478 0-48.018-21.541-48.018-47.982v-416.036c0-26.441 21.541-47.982 48.018-47.982h319.965c26.478 0 47.982 21.541 47.982 47.982v415.999c0 26.478-21.541 48.018-47.982 48.018v0.001zM160 447.966h287.965v-384h-287.965v384z"></path>
</svg>

<?xml version="1.0" encoding="utf-8"?>
<!-- Generator: Adobe Illustrator 19.2.1, SVG Export Plug-In . SVG Version: 6.00 Build 0)  -->
<svg version="1.1" id="Layer_1" xmlns="http://www.w3.org/2000/svg" xmlns:xlink="http://www.w3.org/1999/xlink" x="0px" y="0px"
	 viewBox="0 0 512 512" style="enable-background:new 0 0 512 512;" xml:space="preserve">
<path class="lexicon-icon-body" fill="none" d="M464,512H144c-26.5,0-48-21.5-48-48v-416c0-26.4,21.5-48,48-48h320c26.5,0,48,21.5,48,48v416
	C512,490.4,490.4,512,464,512L464,512z"/>
<path class="lexicon-icon-outline" d="M464,512H144c-26.5,0-48-21.5-48-48v-416c0-26.4,21.5-48,48-48h320c26.5,0,48,21.5,48,48v416C512,490.4,490.4,512,464,512
	L464,512z M160,448h288V64H160V448z"/>
<path class="lexicon-icon-outline" d="M31,0C13.9,0,0,13.9,0,31V481c0,17.1,13.9,31,31,31s31-13.9,31-31V31C62.1,13.9,48.2,0,31,0C31,0,31,0,31,0z"/>
</svg>
